X:7
T:Mrs. Mony Penny's Reel
C:Robert Petrie
S:Petrie's Third Collection of Strathspey Reels and Country Dances &c.
Z:Steve Wyrick , 7/30/05
N:Petrie's Third Collection, page 4
L:1/8
M:C
R:Reel
K:C
f|ecdB c2 Gc|EcGc Bd-df|ecdB cGAF|(E/F/G) Gf ecc:|e/f/|gcec GcEc|Gcec defa|
gcec gcac|fdBg ecce/f/|gcac gcec|GcEc defd|ecge fdaf|egdf ecc|]
